X: 1008
T: Fanny's Delight
N: Pub: J. Walsh, London, 1748
Z: 2012 John Chambers <jc:trillian.mit.edu>
M: C|
L: 1/8
K: G
V: 1
Bc |\
dBGB dBge | dBGB dBge | {e}d2cB {d}c2BA | BGAB AFED |\
dBGB dBge | dBGB dBge | fafd ege^c | d4 D2 :|
|: de |\
{g}=f2ed {f}e2dc | {e}d2cB A2cd | {f}e2dc {e}d2cB | {d}c2BA G2Bc |\
dBdB dBge | dBdB dBge | {e}d2cB {d}c2BA | G2D2 G,2 :|
V: 2 clef=bass middle=d
z2 |\
G4 G4 | G4 g2c'2 | b2g2 a2d2 | g2G2 d2D2 |\
G4 g4 | G4 g4 | a4 A4 | d4 D2 :|
|: z2 |\
b4 ^g4 | e4 A4 | a4 f4 | d4 g4 |\
G4 g4 | G4 g2c'2 | b2g2 a2d2 | g2d2 G2 :|
%%begintext align
The 1st 2d and 3d Cus. foot it, and hands round Six .|
the same back again .|
foot it Six and change sides, the same back again .|.
cross over two Cu. lead up to the top and cast off :|:
%%endtext

%%sep 1 1 500
%%sep 1 1 500

